assets/features/payment-flow/EU.svg

<svg width="30" height="20" viewBox="0 0 30 20" fill="none" xmlns="http://www.w3.org/2000/svg">
<g clip-path="url(#clip0_1202_5407)">
<path d="M0 0.0498047H30V19.9503H0V0.0498047Z" fill="#003399"/>
<path d="M15 2.26123L14.6562 3.31223L15.185 3.48387L15 2.26123Z" fill="#FFCC00"/>
<path d="M14.9999 2.26123L15.3437 3.31223L14.8149 3.48387L14.9999 2.26123Z" fill="#FFCC00"/>
<path d="M16.0561 3.0249H14.9448V3.57714L16.0561 3.0249Z" fill="#FFCC00"/>
<path d="M16.0561 3.0249L15.1573 3.67416L14.8311 3.22639L16.0561 3.0249Z" fill="#FFCC00"/>
<path d="M15.6525 4.26122L15.31 3.20898L14.7812 3.38063L15.6525 4.26122Z" fill="#FFCC00"/>
<path d="M15.6527 4.26134L14.7539 3.61085L15.0814 3.16309L15.6527 4.26134Z" fill="#FFCC00"/>
<path d="M13.9438 3.0249H15.0551V3.57714L13.9438 3.0249Z" fill="#FFCC00"/>
<path d="M13.9438 3.0249L14.8426 3.67416L15.1688 3.22639L13.9438 3.0249Z" fill="#FFCC00"/>
<path d="M14.3477 4.26122L14.6902 3.20898L15.2189 3.38063L14.3477 4.26122Z" fill="#FFCC00"/>
<path d="M14.3477 4.26134L15.2464 3.61085L14.9189 3.16309L14.3477 4.26134ZM15.0002 15.5275L14.6564 16.5798L15.1852 16.7502L15.0002 15.5275Z" fill="#FFCC00"/>
<path d="M14.9999 15.5273L15.3437 16.5796L14.8149 16.75L14.9999 15.5273Z" fill="#FFCC00"/>
<path d="M16.0561 16.2925H14.9448V16.8447L16.0561 16.2925Z" fill="#FFCC00"/>
<path d="M16.0561 16.2925L15.1573 16.9417L14.8311 16.494L16.0561 16.2925Z" fill="#FFCC00"/>
<path d="M15.6525 17.5276L15.31 16.4766L14.7812 16.647L15.6525 17.5276Z" fill="#FFCC00"/>
<path d="M15.6527 17.5272L14.7539 16.8779L15.0814 16.4302L15.6527 17.5272Z" fill="#FFCC00"/>
<path d="M13.9438 16.2925H15.0551V16.8447L13.9438 16.2925Z" fill="#FFCC00"/>
<path d="M13.9438 16.2925L14.8426 16.9417L15.1688 16.494L13.9438 16.2925Z" fill="#FFCC00"/>
<path d="M14.3477 17.5276L14.6902 16.4766L15.2189 16.647L14.3477 17.5276Z" fill="#FFCC00"/>
<path d="M14.3477 17.5272L15.2464 16.8779L14.9189 16.4302L14.3477 17.5272Z" fill="#FFCC00"/>
<path d="M8.33398 8.89404L7.99023 9.94504L8.51898 10.1167L8.33398 8.89404Z" fill="#FFCC00"/>
<path d="M8.33393 8.89404L8.67643 9.94504L8.14893 10.1167L8.33393 8.89404Z" fill="#FFCC00"/>
<path d="M9.39006 9.65771H8.27881V10.2112L9.39006 9.65771Z" fill="#FFCC00"/>
<path d="M9.39004 9.65771L8.49004 10.3082L8.16504 9.86045L9.39004 9.65771Z" fill="#FFCC00"/>
<path d="M8.98773 10.8955L8.64273 9.84326L8.11523 10.0137L8.98773 10.8955Z" fill="#FFCC00"/>
<path d="M8.9874 10.8956L8.0874 10.2451L8.41365 9.79736L8.9874 10.8956Z" fill="#FFCC00"/>
<path d="M7.27637 9.65771H8.38887V10.2112L7.27637 9.65771Z" fill="#FFCC00"/>
<path d="M7.27637 9.65771L8.17637 10.3082L8.50137 9.86045L7.27637 9.65771Z" fill="#FFCC00"/>
<path d="M7.68018 10.8955L8.02393 9.84326L8.55268 10.0137L7.68018 10.8955Z" fill="#FFCC00"/>
<path d="M7.68018 10.8956L8.58018 10.2451L8.25268 9.79736L7.68018 10.8956Z" fill="#FFCC00"/>
<path d="M11.0127 5.14926L11.9127 4.50001L11.5864 4.05225L11.0127 5.14926Z" fill="#FFCC00"/>
<path d="M11.0127 5.14914L11.3577 4.09814L11.8852 4.26854L11.0127 5.14914Z" fill="#FFCC00"/>
<path d="M10.6099 3.91406L11.5099 4.56332L11.8349 4.11556L10.6099 3.91406Z" fill="#FFCC00"/>
<path d="M10.6099 3.91406H11.7211V4.4663L10.6099 3.91406Z" fill="#FFCC00"/>
<path d="M11.6662 3.14941L11.3237 4.20165L11.8512 4.37205L11.6662 3.14941Z" fill="#FFCC00"/>
<path d="M11.6664 3.14941L12.0102 4.20165L11.4814 4.37205L11.6664 3.14941Z" fill="#FFCC00"/>
<path d="M12.3199 5.14926L11.4199 4.50001L11.7474 4.05225L12.3199 5.14926Z" fill="#FFCC00"/>
<path d="M12.3198 5.14914L11.976 4.09814L11.4473 4.26854L12.3198 5.14914Z" fill="#FFCC00"/>
<path d="M12.7235 3.91406L11.8235 4.56332L11.4985 4.11556L12.7235 3.91406Z" fill="#FFCC00"/>
<path d="M12.7238 3.91406H11.6113V4.4663L12.7238 3.91406Z" fill="#FFCC00"/>
<path d="M9.87982 7.57736L9.53607 6.52637L9.00732 6.69677L9.87982 7.57736Z" fill="#FFCC00"/>
<path d="M9.87998 7.577L8.97998 6.92774L9.30748 6.47998L9.87998 7.577Z" fill="#FFCC00"/>
<path d="M8.57373 7.577L9.47248 6.92774L9.14623 6.47998L8.57373 7.577Z" fill="#FFCC00"/>
<path d="M8.57373 7.57736L8.91623 6.52637L9.44498 6.69677L8.57373 7.57736Z" fill="#FFCC00"/>
<path d="M8.16992 6.34229L9.06867 6.99154L9.39492 6.54378L8.16992 6.34229Z" fill="#FFCC00"/>
<path d="M8.16992 6.34229H9.28117V6.89452L8.16992 6.34229Z" fill="#FFCC00"/>
<path d="M10.2836 6.34229L9.38359 6.99154L9.05859 6.54378L10.2836 6.34229Z" fill="#FFCC00"/>
<path d="M10.2839 6.34229H9.17139V6.89452L10.2839 6.34229Z" fill="#FFCC00"/>
<path d="M9.22602 5.57715L9.56977 6.62939L9.04102 6.79978L9.22602 5.57715Z" fill="#FFCC00"/>
<path d="M9.22629 5.57715L8.88379 6.62939L9.41129 6.79978L9.22629 5.57715Z" fill="#FFCC00"/>
<path d="M10.2839 12.9751H9.17139V13.5273L10.2839 12.9751Z" fill="#FFCC00"/>
<path d="M10.2836 12.9751L9.38359 13.6244L9.05859 13.1766L10.2836 12.9751Z" fill="#FFCC00"/>
<path d="M9.87982 14.2114L9.53607 13.1592L9.00732 13.3308L9.87982 14.2114Z" fill="#FFCC00"/>
<path d="M9.87998 14.2115L8.97998 13.561L9.30748 13.1133L9.87998 14.2115Z" fill="#FFCC00"/>
<path d="M8.57373 14.2115L9.47248 13.561L9.14623 13.1133L8.57373 14.2115Z" fill="#FFCC00"/>
<path d="M8.57373 14.2114L8.91623 13.1592L9.44498 13.3308L8.57373 14.2114Z" fill="#FFCC00"/>
<path d="M9.22602 12.2114L9.56977 13.2624L9.04102 13.4341L9.22602 12.2114Z" fill="#FFCC00"/>
<path d="M9.22629 12.2114L8.88379 13.2624L9.41129 13.4341L9.22629 12.2114Z" fill="#FFCC00"/>
<path d="M8.16992 12.9751H9.28117V13.5273L8.16992 12.9751Z" fill="#FFCC00"/>
<path d="M8.16992 12.9751L9.06867 13.6244L9.39492 13.1766L8.16992 12.9751Z" fill="#FFCC00"/>
<path d="M12.7238 15.4028H11.6113V15.9563L12.7238 15.4028Z" fill="#FFCC00"/>
<path d="M12.7235 15.4028L11.8235 16.0533L11.4985 15.6056L12.7235 15.4028Z" fill="#FFCC00"/>
<path d="M12.3198 16.6394L11.976 15.5884L11.4473 15.7588L12.3198 16.6394Z" fill="#FFCC00"/>
<path d="M12.3199 16.6393L11.4199 15.9888L11.7474 15.541L12.3199 16.6393Z" fill="#FFCC00"/>
<path d="M11.0127 16.6393L11.9127 15.9888L11.5864 15.541L11.0127 16.6393Z" fill="#FFCC00"/>
<path d="M11.0127 16.6394L11.3577 15.5884L11.8852 15.7588L11.0127 16.6394Z" fill="#FFCC00"/>
<path d="M11.6664 14.6392L12.0102 15.6902L11.4814 15.8618L11.6664 14.6392Z" fill="#FFCC00"/>
<path d="M11.6662 14.6392L11.3237 15.6902L11.8512 15.8618L11.6662 14.6392Z" fill="#FFCC00"/>
<path d="M10.6099 15.4028H11.7211V15.9563L10.6099 15.4028Z" fill="#FFCC00"/>
<path d="M10.6099 15.4028L11.5099 16.0533L11.8349 15.6056L10.6099 15.4028Z" fill="#FFCC00"/>
<path d="M21.6664 8.89404L22.0102 9.94504L21.4814 10.1167L21.6664 8.89404Z" fill="#FFCC00"/>
<path d="M21.6662 8.89404L21.3237 9.94504L21.8512 10.1167L21.6662 8.89404Z" fill="#FFCC00"/>
<path d="M20.6099 9.65771H21.7211V10.2112L20.6099 9.65771Z" fill="#FFCC00"/>
<path d="M20.6099 9.65771L21.5099 10.3082L21.8349 9.86045L20.6099 9.65771Z" fill="#FFCC00"/>
<path d="M21.0127 10.8955L21.3577 9.84326L21.8852 10.0137L21.0127 10.8955Z" fill="#FFCC00"/>
<path d="M21.0127 10.8956L21.9127 10.2451L21.5864 9.79736L21.0127 10.8956Z" fill="#FFCC00"/>
<path d="M22.7238 9.65771H21.6113V10.2112L22.7238 9.65771Z" fill="#FFCC00"/>
<path d="M22.7235 9.65771L21.8235 10.3082L21.4985 9.86045L22.7235 9.65771Z" fill="#FFCC00"/>
<path d="M22.3198 10.8955L21.976 9.84326L21.4473 10.0137L22.3198 10.8955Z" fill="#FFCC00"/>
<path d="M22.3199 10.8956L21.4199 10.2451L21.7474 9.79736L22.3199 10.8956Z" fill="#FFCC00"/>
<path d="M18.9874 5.14926L18.0874 4.50001L18.4137 4.05225L18.9874 5.14926Z" fill="#FFCC00"/>
<path d="M18.9877 5.14914L18.6427 4.09814L18.1152 4.26854L18.9877 5.14914Z" fill="#FFCC00"/>
<path d="M19.39 3.91406L18.49 4.56332L18.165 4.11556L19.39 3.91406Z" fill="#FFCC00"/>
<path d="M19.3901 3.91406H18.2788V4.4663L19.3901 3.91406Z" fill="#FFCC00"/>
<path d="M18.3339 3.14941L18.6764 4.20165L18.1489 4.37205L18.3339 3.14941Z" fill="#FFCC00"/>
<path d="M18.334 3.14941L17.9902 4.20165L18.519 4.37205L18.334 3.14941Z" fill="#FFCC00"/>
<path d="M17.6802 5.14926L18.5802 4.50001L18.2527 4.05225L17.6802 5.14926Z" fill="#FFCC00"/>
<path d="M17.6802 5.14914L18.0239 4.09814L18.5527 4.26854L17.6802 5.14914Z" fill="#FFCC00"/>
<path d="M17.2764 3.91406L18.1764 4.56332L18.5014 4.11556L17.2764 3.91406Z" fill="#FFCC00"/>
<path d="M17.2764 3.91406H18.3889V4.4663L17.2764 3.91406Z" fill="#FFCC00"/>
<path d="M20.1201 7.57736L20.4639 6.52637L20.9926 6.69677L20.1201 7.57736Z" fill="#FFCC00"/>
<path d="M20.1201 7.577L21.0201 6.92774L20.6926 6.47998L20.1201 7.577Z" fill="#FFCC00"/>
<path d="M21.4261 7.577L20.5273 6.92774L20.8536 6.47998L21.4261 7.577Z" fill="#FFCC00"/>
<path d="M21.4264 7.57736L21.0839 6.52637L20.5552 6.69677L21.4264 7.57736Z" fill="#FFCC00"/>
<path d="M21.83 6.34229L20.9312 6.99154L20.605 6.54378L21.83 6.34229Z" fill="#FFCC00"/>
<path d="M21.83 6.34229H20.7188V6.89452L21.83 6.34229Z" fill="#FFCC00"/>
<path d="M19.7163 6.34229L20.6163 6.99154L20.9413 6.54378L19.7163 6.34229Z" fill="#FFCC00"/>
<path d="M19.7163 6.34229H20.8288V6.89452L19.7163 6.34229Z" fill="#FFCC00"/>
<path d="M20.7739 5.57715L20.4302 6.62939L20.9589 6.79978L20.7739 5.57715Z" fill="#FFCC00"/>
<path d="M20.7739 5.57715L21.1164 6.62939L20.5889 6.79978L20.7739 5.57715Z" fill="#FFCC00"/>
<path d="M19.7163 12.9751H20.8288V13.5273L19.7163 12.9751Z" fill="#FFCC00"/>
<path d="M19.7163 12.9751L20.6163 13.6244L20.9413 13.1766L19.7163 12.9751Z" fill="#FFCC00"/>
<path d="M20.1201 14.2114L20.4639 13.1592L20.9926 13.3308L20.1201 14.2114Z" fill="#FFCC00"/>
<path d="M20.1201 14.2115L21.0201 13.561L20.6926 13.1133L20.1201 14.2115Z" fill="#FFCC00"/>
<path d="M21.4261 14.2115L20.5273 13.561L20.8536 13.1133L21.4261 14.2115Z" fill="#FFCC00"/>
<path d="M21.4264 14.2114L21.0839 13.1592L20.5552 13.3308L21.4264 14.2114Z" fill="#FFCC00"/>
<path d="M20.7739 12.2114L20.4302 13.2624L20.9589 13.4341L20.7739 12.2114Z" fill="#FFCC00"/>
<path d="M20.7739 12.2114L21.1164 13.2624L20.5889 13.4341L20.7739 12.2114Z" fill="#FFCC00"/>
<path d="M21.83 12.9751H20.7188V13.5273L21.83 12.9751Z" fill="#FFCC00"/>
<path d="M21.83 12.9751L20.9312 13.6244L20.605 13.1766L21.83 12.9751Z" fill="#FFCC00"/>
<path d="M17.2764 15.4028H18.3889V15.9563L17.2764 15.4028Z" fill="#FFCC00"/>
<path d="M17.2764 15.4028L18.1764 16.0533L18.5014 15.6056L17.2764 15.4028Z" fill="#FFCC00"/>
<path d="M17.6802 16.6394L18.0239 15.5884L18.5527 15.7588L17.6802 16.6394Z" fill="#FFCC00"/>
<path d="M17.6802 16.6393L18.5802 15.9888L18.2527 15.541L17.6802 16.6393Z" fill="#FFCC00"/>
<path d="M18.9874 16.6393L18.0874 15.9888L18.4137 15.541L18.9874 16.6393Z" fill="#FFCC00"/>
<path d="M18.9877 16.6394L18.6427 15.5884L18.1152 15.7588L18.9877 16.6394Z" fill="#FFCC00"/>
<path d="M18.334 14.6392L17.9902 15.6902L18.519 15.8618L18.334 14.6392Z" fill="#FFCC00"/>
<path d="M18.3339 14.6392L18.6764 15.6902L18.1489 15.8618L18.3339 14.6392Z" fill="#FFCC00"/>
<path d="M19.3901 15.4028H18.2788V15.9563L19.3901 15.4028Z" fill="#FFCC00"/>
<path d="M19.39 15.4028L18.49 16.0533L18.165 15.6056L19.39 15.4028Z" fill="#FFCC00"/>
</g>
<rect x="0.2" y="0.2" width="29.6" height="19.6" rx="3.8" stroke="#8D8D8D" stroke-width="0.4"/>
<defs>
<clipPath id="clip0_1202_5407">
<rect width="30" height="20" rx="4" fill="white"/>
</clipPath>
</defs>
</svg>

<svg xmlns="http://www.w3.org/2000/svg" width="30" height="20" fill="none" viewBox="0 0 30 20"><g clip-path="url(#a)"><path fill="#039" d="M0 .05h30v19.9H0z"/><path fill="#fc0" d="m15 2.261-.344 1.051.529.172z"/><path fill="#fc0" d="m15 2.261.344 1.051-.53.172z"/><path fill="#fc0" d="M16.056 3.025h-1.111v.552z"/><path fill="#fc0" d="m16.056 3.025-.899.65-.326-.449z"/><path fill="#fc0" d="M15.653 4.261 15.31 3.21l-.529.172z"/><path fill="#fc0" d="m15.653 4.261-.9-.65.328-.448z"/><path fill="#fc0" d="M13.944 3.025h1.111v.552z"/><path fill="#fc0" d="m13.944 3.025.899.65.326-.449z"/><path fill="#fc0" d="m14.348 4.261.342-1.052.529.172z"/><path fill="#fc0" d="m14.348 4.261.898-.65-.327-.448zM15 15.527l-.344 1.053.53.17z"/><path fill="#fc0" d="m15 15.527.344 1.053-.53.17z"/><path fill="#fc0" d="M16.056 16.293h-1.111v.552z"/><path fill="#fc0" d="m16.056 16.293-.899.649-.326-.448z"/><path fill="#fc0" d="m15.653 17.528-.343-1.051-.529.17z"/><path fill="#fc0" d="m15.653 17.527-.9-.65.328-.447z"/><path fill="#fc0" d="M13.944 16.293h1.111v.552z"/><path fill="#fc0" d="m13.944 16.293.899.649.326-.448z"/><path fill="#fc0" d="m14.348 17.528.342-1.051.529.17z"/><path fill="#fc0" d="m14.348 17.527.898-.65-.327-.447zM8.334 8.894 7.99 9.945l.529.172z"/><path fill="#fc0" d="m8.334 8.894.342 1.051-.527.172z"/><path fill="#fc0" d="M9.39 9.658H8.28v.553z"/><path fill="#fc0" d="m9.39 9.658-.9.65-.325-.448z"/><path fill="#fc0" d="m8.988 10.896-.345-1.053-.528.17z"/><path fill="#fc0" d="m8.987 10.896-.9-.65.327-.449z"/><path fill="#fc0" d="M7.276 9.658H8.39v.553z"/><path fill="#fc0" d="m7.276 9.658.9.65.325-.448z"/><path fill="#fc0" d="m7.68 10.896.344-1.053.529.17z"/><path fill="#fc0" d="m7.68 10.896.9-.65-.327-.449zm3.333-5.746.9-.65-.327-.448z"/><path fill="#fc0" d="m11.013 5.15.345-1.052.527.17z"/><path fill="#fc0" d="m10.61 3.914.9.65.325-.448z"/><path fill="#fc0" d="M10.61 3.914h1.111v.552z"/><path fill="#fc0" d="m11.666 3.15-.342 1.052.527.17z"/><path fill="#fc0" d="m11.666 3.15.344 1.052-.529.17z"/><path fill="#fc0" d="m12.32 5.15-.9-.65.327-.448z"/><path fill="#fc0" d="m12.32 5.15-.344-1.052-.529.17z"/><path fill="#fc0" d="m12.724 3.914-.9.65-.325-.448z"/><path fill="#fc0" d="M12.724 3.914H11.61v.552zM9.88 7.577l-.344-1.05-.529.17z"/><path fill="#fc0" d="m9.88 7.577-.9-.65.327-.447z"/><path fill="#fc0" d="m8.574 7.577.898-.65-.326-.447z"/><path fill="#fc0" d="m8.574 7.577.342-1.05.529.17z"/><path fill="#fc0" d="m8.17 6.342.899.65.326-.448z"/><path fill="#fc0" d="M8.17 6.342h1.11v.553z"/><path fill="#fc0" d="m10.284 6.342-.9.65-.325-.448z"/><path fill="#fc0" d="M10.284 6.342H9.17v.553z"/><path fill="#fc0" d="M9.226 5.577 9.57 6.63l-.529.17z"/><path fill="#fc0" d="M9.226 5.577 8.884 6.63l.527.17zm1.058 7.398H9.17v.552z"/><path fill="#fc0" d="m10.284 12.975-.9.65-.325-.448z"/><path fill="#fc0" d="m9.88 14.211-.344-1.052-.529.172z"/><path fill="#fc0" d="m9.88 14.212-.9-.651.327-.448z"/><path fill="#fc0" d="m8.574 14.212.898-.651-.326-.448z"/><path fill="#fc0" d="m8.574 14.211.342-1.052.529.172z"/><path fill="#fc0" d="m9.226 12.211.344 1.051-.529.172z"/><path fill="#fc0" d="m9.226 12.211-.342 1.051.527.172z"/><path fill="#fc0" d="M8.17 12.975h1.11v.552z"/><path fill="#fc0" d="m8.17 12.975.899.65.326-.448zm4.554 2.428H11.61v.553z"/><path fill="#fc0" d="m12.724 15.403-.9.65-.325-.447z"/><path fill="#fc0" d="m12.32 16.64-.344-1.052-.529.17z"/><path fill="#fc0" d="m12.32 16.64-.9-.651.327-.448z"/><path fill="#fc0" d="m11.013 16.64.9-.651-.327-.448z"/><path fill="#fc0" d="m11.013 16.64.345-1.052.527.17z"/><path fill="#fc0" d="m11.666 14.64.344 1.05-.529.172z"/><path fill="#fc0" d="m11.666 14.64-.342 1.05.527.172z"/><path fill="#fc0" d="M10.61 15.403h1.111v.553z"/><path fill="#fc0" d="m10.61 15.403.9.65.325-.447zm11.056-6.509.344 1.051-.529.172z"/><path fill="#fc0" d="m21.666 8.894-.342 1.051.527.172z"/><path fill="#fc0" d="M20.61 9.658h1.111v.553z"/><path fill="#fc0" d="m20.61 9.658.9.65.325-.448z"/><path fill="#fc0" d="m21.013 10.896.345-1.053.527.17z"/><path fill="#fc0" d="m21.013 10.896.9-.65-.327-.449z"/><path fill="#fc0" d="M22.724 9.658H21.61v.553z"/><path fill="#fc0" d="m22.724 9.658-.9.65-.326-.448z"/><path fill="#fc0" d="m22.32 10.896-.344-1.053-.529.17z"/><path fill="#fc0" d="m22.32 10.896-.9-.65.327-.449zM18.987 5.15l-.9-.65.327-.448z"/><path fill="#fc0" d="m18.988 5.15-.345-1.052-.528.17z"/><path fill="#fc0" d="m19.39 3.914-.9.65-.325-.448z"/><path fill="#fc0" d="M19.39 3.914h-1.11v.552z"/><path fill="#fc0" d="m18.334 3.15.342 1.052-.527.17z"/><path fill="#fc0" d="m18.334 3.15-.344 1.052.529.17z"/><path fill="#fc0" d="m17.68 5.15.9-.65-.327-.448z"/><path fill="#fc0" d="m17.68 5.15.344-1.052.529.17z"/><path fill="#fc0" d="m17.276 3.914.9.65.325-.448z"/><path fill="#fc0" d="M17.276 3.914h1.113v.552zm2.844 3.663.344-1.05.529.17z"/><path fill="#fc0" d="m20.12 7.577.9-.65-.327-.447z"/><path fill="#fc0" d="m21.426 7.577-.899-.65.327-.447z"/><path fill="#fc0" d="m21.426 7.577-.342-1.05-.529.17z"/><path fill="#fc0" d="m21.83 6.342-.899.65-.326-.448z"/><path fill="#fc0" d="M21.83 6.342h-1.111v.553z"/><path fill="#fc0" d="m19.716 6.342.9.65.325-.448z"/><path fill="#fc0" d="M19.716 6.342h1.113v.553z"/><path fill="#fc0" d="M20.774 5.577 20.43 6.63l.529.17z"/><path fill="#fc0" d="m20.774 5.577.342 1.052-.527.17zm-1.058 7.398h1.113v.552z"/><path fill="#fc0" d="m19.716 12.975.9.65.325-.448z"/><path fill="#fc0" d="m20.12 14.211.344-1.052.529.172z"/><path fill="#fc0" d="m20.12 14.212.9-.651-.327-.448z"/><path fill="#fc0" d="m21.426 14.212-.899-.651.327-.448z"/><path fill="#fc0" d="m21.426 14.211-.342-1.052-.529.172z"/><path fill="#fc0" d="m20.774 12.211-.344 1.051.529.172z"/><path fill="#fc0" d="m20.774 12.211.342 1.051-.527.172z"/><path fill="#fc0" d="M21.83 12.975h-1.111v.552z"/><path fill="#fc0" d="m21.83 12.975-.899.65-.326-.448zm-4.554 2.428h1.113v.553z"/><path fill="#fc0" d="m17.276 15.403.9.65.325-.447z"/><path fill="#fc0" d="m17.68 16.64.344-1.052.529.17z"/><path fill="#fc0" d="m17.68 16.64.9-.651-.327-.448z"/><path fill="#fc0" d="m18.987 16.64-.9-.651.327-.448z"/><path fill="#fc0" d="m18.988 16.64-.345-1.052-.528.17z"/><path fill="#fc0" d="m18.334 14.64-.344 1.05.529.172z"/><path fill="#fc0" d="m18.334 14.64.342 1.05-.527.172z"/><path fill="#fc0" d="M19.39 15.403h-1.11v.553z"/><path fill="#fc0" d="m19.39 15.403-.9.65-.325-.447z"/></g><rect width="29.6" height="19.6" x=".2" y=".2" stroke="#8d8d8d" stroke-width=".4" rx="3.8"/><defs><clipPath id="a"><rect width="30" height="20" fill="#fff" rx="4"/></clipPath></defs></svg>
